<?xml version="1.0" encoding="UTF-8"?>
<map version="1.10" tiledversion="1.11.2" orientation="orthogonal" renderorder="right-down" width="50" height="23" tilewidth="32" tileheight="32" infinite="0" nextlayerid="8" nextobjectid="51">
 <tileset firstgid="437" source="resources/tilesets/quest.tsx"/>
 <layer id="1" name="background" width="50" height="23">
  <data encoding="csv">
437,0,0,0,0,0,0,0,437,0,0,0,0,0,0,0,437,0,0,0,0,0,0,0,437,0,0,0,0,0,0,0,437,0,0,0,0,0,0,0,437,0,0,0,0,0,0,0,437,0,
0,0,0,0,0,0,0,0,0,0,0,0,0,0,0,0,0,0,0,0,0,0,0,0,0,0,0,0,0,0,0,0,0,0,0,0,0,0,0,0,0,0,0,0,0,0,0,0,0,0,
0,0,0,0,0,0,0,0,0,0,0,0,0,0,0,0,0,0,0,0,0,0,0,0,0,0,0,0,0,0,0,0,0,0,0,0,0,0,0,0,0,0,0,0,0,0,0,0,0,0,
0,0,0,0,0,0,0,0,0,0,0,0,0,0,0,0,0,0,0,0,0,0,0,0,0,0,0,0,0,0,0,0,0,0,0,0,0,0,0,0,0,0,0,0,0,0,0,0,0,0,
0,0,0,0,0,0,0,0,0,0,0,0,0,0,0,0,0,0,0,0,0,0,0,0,0,0,0,0,0,0,0,0,0,0,0,0,0,0,0,0,0,0,0,0,0,0,0,0,0,0,
0,0,0,0,0,0,0,0,0,0,0,0,0,0,0,0,0,0,0,0,0,0,0,0,0,0,0,0,0,0,0,0,0,0,0,0,0,0,0,0,0,0,0,0,0,0,0,0,0,0,
870,0,0,0,0,0,0,0,0,0,0,0,0,0,0,871,0,0,0,0,0,0,0,0,0,0,0,0,0,0,870,0,0,0,0,0,0,0,0,0,0,0,0,0,0,870,0,0,0,0,
0,0,0,0,0,0,0,0,0,0,0,0,0,0,0,0,0,0,0,0,0,0,0,0,0,0,0,0,0,0,0,0,0,0,0,0,0,0,0,0,0,0,0,0,0,0,0,0,0,0,
870,0,0,0,0,0,0,0,0,0,0,0,0,0,0,0,0,0,0,0,0,0,0,0,0,0,0,0,0,0,0,870,0,0,0,0,0,0,0,0,0,0,0,0,0,0,871,0,0,0,
0,0,0,0,0,0,0,0,0,0,0,0,0,0,0,0,0,0,0,0,0,0,0,0,0,0,0,0,0,0,0,0,0,0,0,0,0,0,0,0,0,0,0,0,0,0,0,0,0,0,
870,0,0,0,0,0,0,0,0,0,0,0,0,0,0,0,0,0,0,0,0,0,0,0,0,0,0,0,0,0,0,870,0,0,0,0,0,0,0,0,0,0,0,0,0,0,0,0,0,0,
0,0,0,0,0,0,0,0,0,0,0,0,0,0,0,0,0,0,0,0,0,0,0,0,0,0,0,0,0,0,0,0,0,0,0,0,0,0,0,0,0,0,0,0,0,0,0,0,0,0,
870,0,0,0,0,0,0,0,0,0,0,0,0,0,0,0,0,0,0,0,0,0,0,0,0,0,0,0,0,0,0,870,0,0,0,0,0,0,0,0,0,0,0,0,0,0,0,0,0,0,
0,0,0,0,0,0,0,0,0,0,0,0,0,0,0,0,0,0,0,0,0,0,0,0,0,0,0,0,0,0,0,0,0,0,0,0,0,0,0,0,0,0,0,0,0,0,0,0,0,0,
870,0,0,0,0,0,0,0,0,0,0,0,0,0,0,0,0,0,0,0,0,0,0,0,0,0,0,0,0,0,0,870,0,0,0,0,0,0,0,0,0,0,0,0,0,0,0,0,0,0,
0,0,0,0,0,0,0,0,0,0,0,0,0,0,0,0,0,0,0,0,0,0,0,0,0,0,0,0,0,0,0,0,0,0,0,0,0,0,0,0,0,0,0,0,0,0,0,0,0,0,
870,0,0,0,0,0,0,0,0,0,0,0,0,0,0,0,0,0,0,0,0,0,0,0,0,0,0,0,0,0,0,870,0,0,0,0,0,0,0,0,0,0,0,0,0,0,0,0,0,0,
0,0,0,0,0,0,0,0,0,0,0,0,0,0,0,0,0,0,0,0,0,0,0,0,0,0,0,0,0,0,0,0,0,0,0,0,0,0,0,0,0,0,0,0,0,0,0,0,0,0,
870,0,0,0,0,0,0,0,0,0,0,0,0,0,0,871,0,0,0,0,0,0,0,0,0,0,0,0,0,0,870,0,0,0,0,0,0,0,0,0,0,0,0,0,0,871,0,0,0,0,
0,0,0,0,0,0,0,0,0,0,0,0,0,0,0,0,0,0,0,0,0,0,0,0,0,0,0,0,0,0,0,0,0,0,0,0,0,0,0,0,0,0,0,0,0,0,0,0,0,0,
89,89,89,89,89,0,89,0,89,0,89,0,89,89,89,89,89,89,89,0,89,0,89,0,89,0,89,0,89,89,89,89,89,89,89,89,89,89,89,89,89,89,89,89,89,89,89,89,89,0,
0,0,0,0,0,0,0,0,0,0,0,0,0,0,0,0,0,0,0,0,0,0,0,0,0,0,0,0,0,0,0,0,0,0,0,0,0,0,0,0,0,0,0,0,0,0,0,0,0,0,
89,89,89,89,89,89,89,89,89,89,89,89,89,89,89,89,89,89,89,89,89,89,89,89,89,89,89,89,89,0,89,89,89,89,89,89,89,89,89,89,89,89,89,89,89,89,89,89,89,0
</data>
 </layer>
 <layer id="2" name="torches &amp; level" width="50" height="23">
  <data encoding="csv">
0,0,0,0,0,0,0,0,0,0,0,0,0,0,0,0,0,0,0,0,0,0,0,0,0,0,0,0,0,0,0,0,0,0,0,0,0,0,0,0,0,0,0,0,0,0,0,0,0,0,
0,0,0,0,0,0,0,0,0,0,0,0,0,0,0,0,0,0,0,0,0,0,0,0,0,0,0,0,0,0,0,0,0,0,0,0,0,0,0,0,0,0,0,0,0,0,0,0,0,0,
0,0,0,0,0,0,0,0,0,0,0,0,0,0,0,0,0,0,0,0,0,0,0,0,0,0,0,0,0,0,0,0,0,0,0,0,0,0,0,0,0,0,0,0,0,0,0,0,0,0,
0,0,0,0,0,0,0,0,0,0,0,0,0,0,0,0,0,0,0,0,0,0,0,0,0,0,0,0,0,0,0,0,0,0,0,0,0,0,0,0,0,0,0,0,0,0,0,0,0,0,
0,0,0,0,0,0,0,0,0,0,0,0,0,0,0,0,0,0,0,0,0,0,0,0,0,0,0,0,0,0,0,0,0,0,0,0,0,0,0,0,0,0,0,0,0,0,0,0,0,0,
0,0,0,0,0,0,0,0,0,0,0,0,0,0,0,0,0,0,0,0,0,0,0,0,0,0,0,0,0,0,0,0,0,0,0,0,0,0,0,0,0,0,0,0,0,0,0,0,0,0,
0,0,0,0,0,0,0,0,0,0,0,0,0,0,0,0,0,0,0,0,0,0,0,0,0,0,0,0,0,0,0,0,0,0,0,0,0,0,0,0,0,0,0,0,0,0,0,0,0,0,
0,0,0,0,0,0,0,0,0,0,0,0,0,0,0,0,0,0,0,0,0,0,0,0,0,0,0,0,0,0,0,0,0,0,0,0,0,0,0,0,0,0,0,0,0,0,0,0,0,0,
0,0,0,0,0,0,0,0,0,0,0,0,0,0,0,0,0,0,0,0,0,0,0,0,0,0,0,0,0,0,0,0,0,0,0,0,0,0,0,0,0,0,0,0,0,0,0,0,0,0,
0,0,0,0,0,0,0,0,0,0,0,0,0,0,0,0,0,0,0,0,0,0,0,0,0,0,0,0,0,0,0,0,0,0,0,0,0,0,0,0,0,0,0,0,0,0,0,0,0,0,
0,0,0,0,0,0,0,0,0,0,0,0,0,0,0,0,0,0,0,0,0,0,0,0,0,0,0,0,0,0,0,0,0,0,0,0,0,0,0,0,0,0,0,0,0,0,0,0,0,0,
0,0,0,0,0,0,0,0,626,0,0,0,0,0,0,0,864,0,0,0,0,0,0,0,0,0,0,0,864,0,0,0,0,0,0,0,0,0,0,0,0,0,0,0,0,0,0,864,0,0,
0,0,0,0,0,0,0,0,0,0,0,0,0,0,0,0,0,0,0,0,0,0,0,0,0,0,0,0,0,0,0,0,0,0,0,0,0,0,0,0,0,0,0,0,0,0,0,0,0,0,
0,0,0,0,0,0,0,0,0,0,0,0,0,0,0,0,0,0,0,0,0,0,0,0,0,0,0,0,0,0,0,0,0,0,0,0,0,0,0,0,0,0,0,0,0,0,0,0,0,0,
0,0,0,0,0,0,0,0,0,0,0,0,0,0,0,0,0,0,0,0,0,0,0,0,0,0,0,0,0,0,0,0,0,0,0,0,0,0,0,0,0,0,0,0,0,0,0,0,0,0,
0,0,0,0,0,0,0,0,0,0,0,0,0,0,0,0,0,0,0,0,0,0,0,0,0,0,0,0,0,0,0,0,0,0,0,0,0,0,0,0,0,0,0,0,0,0,0,0,0,0,
0,0,0,0,0,0,0,0,0,0,0,0,0,0,0,0,0,0,0,0,0,0,0,0,0,0,0,0,0,0,0,0,0,0,0,0,0,0,0,0,0,0,0,0,0,0,0,0,0,0,
0,0,0,0,0,0,0,0,0,0,0,0,0,0,0,0,0,0,0,0,0,0,0,0,0,0,0,0,0,0,0,0,0,0,0,0,0,0,0,0,0,0,0,0,0,0,0,0,0,0,
0,0,0,0,0,0,0,0,0,0,0,0,0,0,0,0,0,0,0,0,0,0,0,0,0,0,0,0,0,0,0,0,0,0,0,0,0,0,0,0,0,0,0,0,0,0,0,0,0,0,
0,0,0,0,0,0,0,0,0,0,0,0,0,0,0,0,0,0,0,0,0,0,0,0,0,0,0,0,0,0,0,0,0,0,0,0,0,0,0,0,0,0,0,0,0,0,0,0,0,0,
0,0,0,0,0,0,0,0,0,0,0,0,0,0,0,0,0,0,0,0,0,0,0,0,0,0,0,0,0,0,0,0,0,0,0,0,0,0,0,0,0,0,0,0,0,0,0,0,0,0,
0,0,0,0,0,0,0,0,0,0,0,0,0,0,0,0,0,0,0,0,0,0,0,0,0,0,0,0,0,0,0,0,0,0,0,0,0,0,0,0,0,0,0,0,0,0,0,0,0,0,
0,0,0,0,0,0,0,0,0,0,0,0,0,0,0,0,0,0,0,0,0,0,0,0,0,0,0,0,0,0,0,0,0,0,0,0,0,0,0,0,0,0,0,0,0,0,0,0,0,0
</data>
 </layer>
 <objectgroup id="3" name="platforms">
  <object id="1" gid="834" x="0" y="671.333" width="64" height="64"/>
  <object id="2" gid="834" x="63.6667" y="671.333" width="64" height="64"/>
  <object id="3" gid="834" x="127.667" y="671.333" width="64" height="64"/>
  <object id="4" gid="834" x="192" y="672" width="64" height="64"/>
  <object id="5" gid="834" x="255.667" y="672" width="64" height="64"/>
  <object id="6" gid="834" x="320.333" y="671.667" width="64" height="64"/>
  <object id="7" gid="834" x="383.667" y="672" width="64" height="64"/>
  <object id="8" gid="834" x="448.333" y="672.333" width="64" height="64"/>
  <object id="9" gid="834" x="512" y="672.333" width="64" height="64"/>
  <object id="10" gid="834" x="575.667" y="672" width="64" height="64"/>
  <object id="11" gid="834" x="639.667" y="671.667" width="64" height="64"/>
  <object id="12" gid="834" x="703.667" y="671.667" width="64" height="64"/>
  <object id="13" gid="834" x="767.667" y="671.667" width="64" height="64"/>
  <object id="14" gid="834" x="832" y="671.667" width="64" height="64"/>
  <object id="15" gid="834" x="895.667" y="671.667" width="64" height="64"/>
  <object id="16" gid="834" x="960" y="672" width="64" height="64"/>
  <object id="17" gid="834" x="1024" y="672.333" width="64" height="64"/>
  <object id="22" gid="834" x="1343.67" y="672.333" width="64" height="64"/>
  <object id="23" gid="834" x="1407.67" y="672" width="64" height="64"/>
  <object id="24" gid="834" x="1471.67" y="671.667" width="64" height="64"/>
  <object id="25" gid="834" x="1536" y="671.667" width="64" height="64"/>
  <object id="26" gid="842" x="895" y="607.5" width="64" height="64"/>
  <object id="31" gid="834" x="1056" y="512" width="64" height="64"/>
  <object id="32" gid="834" x="1185.83" y="412.5" width="64" height="64"/>
  <object id="33" gid="834" x="1314.67" y="320" width="64" height="64"/>
 </objectgroup>
 <objectgroup id="4" name="hazards">
  <object id="30" gid="759" x="960.242" y="607.455" width="64" height="64"/>
  <object id="35" gid="682" x="511.5" y="607.5" width="64" height="50"/>
  <object id="36" gid="682" x="572" y="608.5" width="64" height="50"/>
  <object id="18" gid="661" x="1088" y="671" width="64" height="64"/>
  <object id="19" gid="661" x="1152" y="671.333" width="64" height="64"/>
  <object id="20" gid="661" x="1216" y="671.667" width="64" height="64"/>
  <object id="21" gid="661" x="1279.67" y="672" width="64" height="64"/>
  <object id="49" gid="682" x="1376.67" y="608" width="64" height="42"/>
 </objectgroup>
 <objectgroup id="7" name="enemies">
  <object id="34" gid="514" x="770" y="510" width="64" height="64">
   <properties>
    <property name="type" value="patrol"/>
   </properties>
  </object>
  <object id="34" gid="104" x="320.333" y="630" width="64" height="64">
     <properties>
      <property name="type" value="static"/>
     </properties>
    </object>
 </objectgroup>
 <objectgroup id="5" name="collectables">
  <object id="41" gid="592" x="232" y="591" width="64" height="64"/>
  <object id="42" gid="592" x="274.5" y="590.5" width="64" height="64"/>
  <object id="43" gid="592" x="316" y="591" width="64" height="64"/>
  <object id="44" gid="592" x="357.5" y="590" width="64" height="64"/>
  <object id="45" gid="592" x="896" y="543" width="64" height="64"/>
  <object id="46" gid="592" x="1055.5" y="446.5" width="64" height="64"/>
  <object id="47" gid="592" x="1185.83" y="346.5" width="64" height="64"/>
  <object id="48" gid="592" x="1313.83" y="256.5" width="64" height="64"/>
 </objectgroup>
 <objectgroup id="6" name="level_logic">
  <object id="37" gid="599" x="1540" y="607.333" width="64" height="64"/>
  <object id="38" gid="600" x="1540" y="543.375" width="64" height="64"/>
 </objectgroup>
</map>
